X:232
T:B232-  In Crete
Q:1/4=120
L:1/4
M:3/4
K:F
FFG|A3/2G/2F|FFE|F3|A/2B/2cB|A2(G|G)FG/2F/2|E3/4F/4E/2D/2E|\
CFB|A2(G|G)FG/2F/2|E/2F/4E/4 D/4E/4F/4D/4E|\
A/4G/4A/4B/4cB|A3/2A/2 G/2F/2|FFE|F3||\
FFF|B3/2B/2 A/2G/2|GG^F|G2G|AGF|E3/2F/2G|\
FGG/2B/2|A3|]

